!!!ONB: MCCC : IEE0094_02 : Extracted Monophonic Melody
!!!COM: Elgar, Edward
!!!OPR: Violin Concerto
!!!OMV: 2
!!!SCT: Op.61
!!!ODT: 1905///
**kern
*staff1
*clefG2
*k[b-e-]
*B-:
*M4/4
4ee-
4dd
4f
=5
4g
4r
2r
=6
4r
4gg
4ff
4a
=7
4b-
4r
2r
=8
4r
4dd-
4cc
4a
=9
4b-
4cc
2a
=10
4r
4dd-
4cc
4a
=11
4b-
4cc
4f
4r
=12
1r
=13
2r
2dd
=14
4ff
4r
2r
=15
2r
2ff[
=16
4ff]
4r
2r
=17
1r
=18
1r
=19
1r
=20
1r
=21
1r
=22
1r
=23
2r
8b-
8g
4d[
=24
4d]
4r
2r
=25
1r
=26
1r
=27
1r
=28
1bb[
=29
4bb]
4r
2r
=30
4e
4r
2r
=31
1r
=32
1r
=33
1r
=34
1r
=35
1r
=36
1r
=37
1d-[
=38
4d-]
4r
2r
=39
4r
4fff
4ddd-
8ff
32ff#
32ff
32ee
32ff
=40
4.aa-
8ff#
2ff#
=41
1r
=42
1r
=43
1r
=44
1r
=45
4r
4ff#
4ff
4a-
=46
4b-
4r
2r
=47
4r
4cc
4dd-
8.dd-
16cc
=48
4ee-
4r
4r
8r
8ee
=49
4ff
4dd-
4dd
8.dd
16cc#
=50
4ee
4r
2r
=51
1r
=52
4r
4aa[
8aa]
8bb
8eee
8aa
=53
4aaa
4r
2r
=54
1r
=55
1r
=56
2r
4r
8.aa
16b
=57
4dd-
4r
4.aa
8gg
=58
4ff#
2ee
4r
=59
1r
=60
2r
4b-
4a
=61
4r
4cc
4dd-
4r
=62
4r
8.fff#
16fff
4eee-
4r
=63
4r
8.fff#
16eee
4ddd
4r
=64
1r
=65
4f#
4r
2r
=66
1r
=67
1r
=68
2r
4r
8.ff#
16a-
=69
4f#
4r
4r
8ff#
8a-
=70
4b-
4r
4r
8.aa-
16cc
=71
4b-
4r
2r
=72
1r
=73
2r
4eee-
8.ddd-
16ff#
=74
4bb-
4r
2r
=75
1r
=76
1r
=77
1r
=78
1r
=79
1r
=80
1r
=81
1r
=82
1r
=83
4a
8.dd
16f
8f
8b-
4a
=84
1r
=85
1r
=86
1r
=87
1r
=88
1r
=89
8a-
8ee-
4dd-
8cc
8b-
4a-
=90
4f#
4f
4a-
4r
=91
1r
=92
1r
=93
1r
=94
1r
=95
1r
=96
1r
=97
1r
=98
1r
=99
1r
=100
1r
=101
1r
=102
1r
=103
4r
12bb-
12fff
12bb-
12ff
12bb-
12ff
12dd
12ff
12dd
=104
4ff
4r
2r
=105
1r
=106
1r
=107
1r
=108
1r
=109
1r
=110
1r
=111
1r
=112
8r
8eee-
8r
8ddd-
8r
8ccc
8r
8ff
=113
1r
=114
1r
=115
1r
=116
1r
=117
8ddd
8ccc
4eee-
8ddd
8bb-
4ff
=118
1r
=119
1r
=120
1r
=121
1r
=122
1r
=123
2ee-
4dd-
4cc
=124
4b-
4g
4b-[
8b-]
8f
=125
2e-
4d-
4r
=126
1r
=127
1r
=128
1f[
=129
2f]
2r
=130
1r
=131
1r
=132
1r
=133
2r
4b-
4b-
=134
2r
4ff
4r
=135
1r
==
*-
